X:1
T:[ID 1-142b]
T:[ID 1-142b]
T:Bezeichnung standardisiert: Menuet Frey Meyer Men\"uet 39. In dieser Quelle auch als: Men\"uet 19. Frey Meyer; Menuet Frey Me\"yster In anderer Quelle: 10. Menuet - H. N. Philipp 1784 (Anm. S. Wascher);
T:Urheber unbekannt Erstbeleg: vor 1767 (Datum in der schriftlichen Quelle) Datum in der hier transkribierten schriftlichen Quelle: 1775
C:Urheber unbekannt
C:Erstbeleg: vor 1767 (Datum in der schriftlichen Quelle)
C:Datum in der hier transkribierten schriftlichen Quelle: 1775
L:1/8
M:3/4
K:D
V:1 treble 
V:1
 d4 e2 | fd F2 A2 | GE C2 e2 | d4 c2 | dc d2 B2 | c2 BA^GF | E2 DCDB, | C6 :: f2 edcB | cd e2 d2 | %10
 cedAFE | Fd c4 | df g2 fg | e2 dc d2 | cedAFE | F6 :| %16

